img/users/oax.svg

<?xml version="1.0" encoding="UTF-8"?>
<svg xmlns="http://www.w3.org/2000/svg" xmlns:xlink="http://www.w3.org/1999/xlink" width="113.39pt" height="113.39pt" viewBox="0 0 113.39 113.39" version="1.1">
<g id="surface1">
<path style=" stroke:none;fill-rule:nonzero;fill:rgb(10.588074%,27.450562%,49.411011%);fill-opacity:1;" d="M 70.445312 71.207031 L 65.097656 71.207031 L 62.679688 66.371094 L 68.023438 66.371094 Z M 49.3125 66.371094 L 46.890625 71.207031 L 41.546875 71.207031 L 56.058594 42.183594 L 65.734375 61.53125 L 60.257812 61.53125 L 55.929688 53.128906 L 51.601562 61.660156 Z M 49.3125 66.371094 "/>
<path style=" stroke:none;fill-rule:nonzero;fill:rgb(10.588074%,27.450562%,49.411011%);fill-opacity:1;" d="M 87.886719 56.695312 L 99.214844 71.207031 L 93.105469 71.207031 L 84.828125 60.640625 Z M 87.886719 56.695312 L 84.828125 52.75 L 93.105469 42.183594 L 99.214844 42.183594 Z M 81.773438 56.695312 L 84.828125 60.640625 L 76.554688 71.207031 L 70.316406 71.207031 Z M 84.828125 52.875 L 81.773438 56.820312 L 70.316406 42.308594 L 76.554688 42.308594 Z M 84.828125 52.875 "/>
<path style=" stroke:none;fill-rule:nonzero;fill:rgb(10.588074%,27.450562%,49.411011%);fill-opacity:1;" d="M 39 46.382812 C 41.925781 49.3125 43.199219 52.75 43.199219 56.695312 C 43.199219 60.640625 41.800781 64.078125 39 67.007812 C 36.199219 69.933594 32.761719 71.207031 28.6875 71.207031 C 24.613281 71.207031 21.304688 69.808594 18.375 67.007812 C 15.574219 64.207031 14.175781 60.769531 14.175781 56.695312 C 14.175781 53.511719 15.066406 50.710938 16.847656 48.292969 L 20.414062 51.855469 C 19.523438 53.257812 19.011719 55.039062 19.011719 56.824219 C 19.011719 59.496094 20.03125 61.789062 21.8125 63.695312 C 23.722656 65.605469 26.015625 66.625 28.6875 66.625 C 31.363281 66.625 33.652344 65.605469 35.5625 63.695312 C 37.472656 61.789062 38.363281 59.496094 38.363281 56.824219 C 38.363281 54.148438 37.34375 51.855469 35.5625 49.949219 C 33.652344 48.039062 31.363281 47.148438 28.6875 47.148438 C 26.90625 47.148438 25.25 47.53125 23.851562 48.421875 L 20.285156 44.855469 C 22.703125 43.074219 25.503906 42.183594 28.6875 42.183594 C 32.761719 42.183594 36.199219 43.582031 39 46.382812 "/>
</g>
</svg>

<svg xmlns="http://www.w3.org/2000/svg" width="151.187" height="151.187" viewBox="0 0 113.39 113.39"><g fill="#1b467e"><path d="M70.445 71.207h-5.347l-2.418-4.836h5.343zm-21.132-4.836l-2.422 4.836h-5.344l14.512-29.023 9.675 19.347h-5.476L55.93 53.13l-4.328 8.531zm0 0"/><path d="M87.887 56.695l11.328 14.512h-6.11l-8.277-10.566zm0 0l-3.059-3.945 8.277-10.566h6.11zm-6.114 0l3.055 3.946-8.273 10.566h-6.239zm3.055-3.82l-3.055 3.945-11.457-14.51h6.239zM39 46.383c2.926 2.93 4.2 6.367 4.2 10.312 0 3.946-1.4 7.383-4.2 10.313-2.8 2.926-6.238 4.199-10.313 4.199-4.074 0-7.382-1.398-10.312-4.2-2.8-2.8-4.2-6.237-4.2-10.312 0-3.183.891-5.984 2.673-8.402l3.566 3.562c-.89 1.403-1.402 3.184-1.402 4.97 0 2.671 1.02 4.964 2.8 6.87 1.91 1.91 4.204 2.93 6.875 2.93 2.676 0 4.965-1.02 6.875-2.93 1.91-1.906 2.801-4.199 2.801-6.87 0-2.677-1.02-4.97-2.8-6.876-1.91-1.91-4.2-2.8-6.876-2.8-1.78 0-3.437.382-4.835 1.273l-3.567-3.567c2.418-1.78 5.219-2.671 8.402-2.671 4.075 0 7.512 1.398 10.313 4.199"/></g></svg>
